static/assets/images/icons/build.svg

<svg xmlns="http://www.w3.org/2000/svg" fill="none" viewBox="0 0 256 256"><path fill="#000" d="M110.229 144.895q2.847 0 5.371-.438a28.6 28.6 0 0 0 4.924-1.314l27.849 27.684c5.1 5.071 13.342 5.058 18.427-.027s5.098-13.327.027-18.427l-27.684-27.849a29.6 29.6 0 0 0 1.314-4.819q.438-2.41.438-5.476 0-12.486-8.867-21.353T110.667 84q-3.724 0-7.448.99a38.3 38.3 0 0 0-7.228 2.734l17.457 17.457a8.675 8.675 0 0 1-12.267 12.267L83.724 99.991a37.5 37.5 0 0 0-2.734 7.228 29.4 29.4 0 0 0-.99 7.448q0 12.485 8.876 21.361t21.353 8.867"/><path fill="#000" d="M128 228q-20.75 0-39-7.875T57.25 198.75 35.875 167 28 128t7.875-39T57.25 57.25 89 35.875 128 28t39 7.875 31.75 21.375T220.125 89 228 128t-7.875 39-21.375 31.75T167 220.125 128 228m0-20q33.5 0 56.75-23.25T208 128t-23.25-56.75T128 48 71.25 71.25 48 128t23.25 56.75T128 208"/></svg>

<svg width="256" height="256" viewBox="0 0 256 256" fill="none" xmlns="http://www.w3.org/2000/svg">
<path d="M110.229 144.895C112.127 144.895 113.917 144.749 115.6 144.457C117.282 144.165 118.923 143.727 120.524 143.143L148.373 170.827C153.473 175.898 161.715 175.885 166.8 170.8C171.885 165.715 171.898 157.473 166.827 152.373L139.143 124.524C139.727 122.917 140.165 121.311 140.457 119.705C140.749 118.098 140.895 116.273 140.895 114.229C140.895 105.905 137.94 98.7872 132.028 92.8758C126.117 86.9644 118.996 84.0058 110.667 84C108.184 84 105.702 84.33 103.219 84.9901C100.737 85.6502 98.327 86.5614 95.9905 87.7238L113.448 105.181C116.835 108.568 116.835 114.06 113.448 117.448C110.06 120.835 104.568 120.835 101.181 117.448L83.7238 99.9905C82.5556 102.327 81.6443 104.737 80.9901 107.219C80.3359 109.702 80.0058 112.184 80 114.667C80 122.99 82.9586 130.111 88.8758 136.028C94.793 141.945 101.911 144.901 110.229 144.895Z" fill="black"/>
<path d="M128 228C114.167 228 101.167 225.375 89 220.125C76.8333 214.875 66.25 207.75 57.25 198.75C48.25 189.75 41.125 179.167 35.875 167C30.625 154.833 28 141.833 28 128C28 114.167 30.625 101.167 35.875 89C41.125 76.8333 48.25 66.25 57.25 57.25C66.25 48.25 76.8333 41.125 89 35.875C101.167 30.625 114.167 28 128 28C141.833 28 154.833 30.625 167 35.875C179.167 41.125 189.75 48.25 198.75 57.25C207.75 66.25 214.875 76.8333 220.125 89C225.375 101.167 228 114.167 228 128C228 141.833 225.375 154.833 220.125 167C214.875 179.167 207.75 189.75 198.75 198.75C189.75 207.75 179.167 214.875 167 220.125C154.833 225.375 141.833 228 128 228ZM128 208C150.333 208 169.25 200.25 184.75 184.75C200.25 169.25 208 150.333 208 128C208 105.667 200.25 86.75 184.75 71.25C169.25 55.75 150.333 48 128 48C105.667 48 86.75 55.75 71.25 71.25C55.75 86.75 48 105.667 48 128C48 150.333 55.75 169.25 71.25 184.75C86.75 200.25 105.667 208 128 208Z" fill="black"/>
</svg>
